assets/icons/spotify.svg

<?xml version="1.0" encoding="UTF-8"?>
<svg width="26px" height="26px" viewBox="0 0 26 26" version="1.1" xmlns="http://www.w3.org/2000/svg" xmlns:xlink="http://www.w3.org/1999/xlink">
    <!-- Generator: Sketch 52.6 (67491) - http://www.bohemiancoding.com/sketch -->
    <title>Fill-1</title>
    <desc>Created with Sketch.</desc>
    <g id="Page-1" stroke="none" stroke-width="1" fill="none" fill-rule="evenodd">
        <g id="Desktop-HD" transform="translate(-1014.000000, -1231.000000)" fill="#0030a3" fill-rule="nonzero">
            <g id="Group-3" transform="translate(1014.000000, 1230.000000)">
                <g id="spotify" transform="translate(0.000000, 1.000000)">
                    <path d="M20.6703095,11.5254286 C16.4926667,9.04444048 9.6017381,8.81632143 5.61367857,10.0267143 C4.97311905,10.2210952 4.29588095,9.85957143 4.10180952,9.21916667 C3.9077381,8.57829762 4.26895238,7.90152381 4.90982143,7.70683333 C9.48783333,6.31722619 17.09825,6.58558333 21.907631,9.44047619 C22.4836548,9.7825 22.672619,10.5264405 22.3312143,11.1015357 C21.9895,11.6775595 21.2449405,11.8674524 20.6703095,11.5254286 Z M20.5335,15.2000952 C20.240381,15.6756786 19.6185476,15.824869 19.1435833,15.5328333 C15.6606667,13.3920119 10.3497024,12.7717262 6.22916667,14.0225119 C5.69477381,14.1839286 5.1305119,13.8827619 4.96816667,13.3492976 C4.80721429,12.8150595 5.10853571,12.2517262 5.642,12.0892262 C10.3490833,10.6607738 16.2007857,11.3525595 20.2010714,13.8109524 C20.6760357,14.1034524 20.8255357,14.7255952 20.5335,15.2000952 Z M18.9476548,18.729131 C18.7147381,19.1110833 18.2174881,19.2307143 17.8369286,18.9979524 C14.7935357,17.137869 10.962869,16.7178452 6.45155952,17.74825 C6.01683333,17.8479167 5.5835,17.5755357 5.48429762,17.1408095 C5.38478571,16.7062381 5.6562381,16.2729048 6.09189286,16.1737024 C11.0287976,15.0451786 15.2635476,15.5308214 18.6796071,17.61825 C19.0604762,17.8508571 19.1804167,18.3484167 18.9476548,18.729131 Z M13.003869,0.0359047619 C5.84628571,0.0359047619 0.0436428571,5.83839286 0.0436428571,12.9959762 C0.0436428571,20.1543333 5.84628571,25.9563571 13.003869,25.9563571 C20.1617619,25.9563571 25.9640952,20.1543333 25.9640952,12.9959762 C25.9640952,5.83839286 20.1617619,0.0359047619 13.003869,0.0359047619 Z" id="Fill-1"></path>
                </g>
            </g>
        </g>
    </g>
</svg>

<svg width="26" height="26" fill="none" xmlns="http://www.w3.org/2000/svg"><path d="M20.67 11.526c-4.178-2.481-11.068-2.71-15.057-1.5a1.212 1.212 0 11-.703-2.319c4.578-1.39 12.188-1.121 16.997 1.734a1.212 1.212 0 01-1.237 2.085zm-.137 3.674a1.011 1.011 0 01-1.39.333c-3.482-2.14-8.793-2.761-12.914-1.51a1.012 1.012 0 01-1.261-.673c-.161-.535.14-1.098.674-1.26C10.349 10.66 16.2 11.352 20.2 13.81c.475.293.624.915.332 1.39zm-1.585 3.53a.807.807 0 01-1.111.268c-3.044-1.86-6.874-2.28-11.386-1.25a.808.808 0 11-.36-1.574c4.938-1.129 9.172-.643 12.588 1.445.381.232.501.73.269 1.11zM13.004.035C5.846.036.044 5.84.044 12.996c0 7.159 5.802 12.96 12.96 12.96 7.158 0 12.96-5.801 12.96-12.96 0-7.157-5.802-12.96-12.96-12.96z" fill="#fff"/></svg>
